svg/icon/rise.svg

<svg xmlns="http://www.w3.org/2000/svg" xmlns:xlink="http://www.w3.org/1999/xlink" width="32" height="32" viewBox="0 0 32 32">
  <defs>
    <linearGradient id="rise-c" x1="50%" x2="50%" y1="0%" y2="100%">
      <stop offset="0%" stop-color="#FFF" stop-opacity=".5"/>
      <stop offset="100%" stop-opacity=".5"/>
    </linearGradient>
    <circle id="rise-b" cx="16" cy="15" r="15"/>
    <filter id="rise-a" width="111.7%" height="111.7%" x="-5.8%" y="-4.2%" filterUnits="objectBoundingBox">
      <feOffset dy=".5" in="SourceAlpha" result="shadowOffsetOuter1"/>
      <feGaussianBlur in="shadowOffsetOuter1" result="shadowBlurOuter1" stdDeviation=".5"/>
      <feComposite in="shadowBlurOuter1" in2="SourceAlpha" operator="out" result="shadowBlurOuter1"/>
      <feColorMatrix in="shadowBlurOuter1" values="0 0 0 0 0   0 0 0 0 0   0 0 0 0 0  0 0 0 0.199473505 0"/>
    </filter>
    <path id="rise-e" d="M12.6052399,8.15505704 C11.7477576,8.15505704 11.0526308,7.44877346 11.0526308,6.57752852 C11.0526308,5.70628358 11.7477576,5 12.6052399,5 C13.4627223,5 14.1578491,5.70628358 14.1578491,6.57752852 C14.1578491,7.44877346 13.4627223,8.15505704 12.6052399,8.15505704 Z M19.4472463,24.9998531 C18.5897639,24.9998531 17.8946372,24.2935695 17.8946372,23.4223246 C17.8946372,22.5510796 18.5897639,21.8447961 19.4472463,21.8447961 C20.3047286,21.8447961 20.9998554,22.5510796 20.9998554,23.4223246 C20.9998554,24.2935695 20.3047286,24.9998531 19.4472463,24.9998531 Z M13.2420098,13.2112689 C12.6301312,13.6866859 11.754792,13.5681008 11.2868849,12.9464016 C10.8189777,12.3247024 10.9356896,11.435314 11.5475682,10.9598969 L18.7053594,5.39844044 C19.317238,4.92302341 20.1925772,5.04160853 20.6604843,5.66330773 C21.1283915,6.28500694 21.0116796,7.17439538 20.399801,7.64981242 L13.2420098,13.2112689 Z M13.2946406,18.8796765 C12.682762,19.3550935 11.8074228,19.2365084 11.3395157,18.6148092 C10.8716085,17.99311 10.9883204,17.1037215 11.600199,16.6283045 L18.7579902,11.066848 C19.3698688,10.591431 20.245208,10.7100161 20.7131151,11.3317153 C21.1810223,11.9534145 21.0643104,12.8428029 20.4524318,13.31822 L13.2946406,18.8796765 Z M13.2946406,24.7085106 C12.682762,25.1839277 11.8074228,25.0653426 11.3395157,24.4436434 C10.8716085,23.8219441 10.9883204,22.9325557 11.600199,22.4571387 L18.7579902,16.8956822 C19.3698688,16.4202652 20.245208,16.5388503 20.7131151,17.1605495 C21.1810223,17.7822487 21.0643104,18.6716371 20.4524318,19.1470542 L13.2946406,24.7085106 Z"/>
    <filter id="rise-d" width="135%" height="117.5%" x="-17.5%" y="-6.2%" filterUnits="objectBoundingBox">
      <feOffset dy=".5" in="SourceAlpha" result="shadowOffsetOuter1"/>
      <feGaussianBlur in="shadowOffsetOuter1" result="shadowBlurOuter1" stdDeviation=".5"/>
      <feColorMatrix in="shadowBlurOuter1" values="0 0 0 0 0   0 0 0 0 0   0 0 0 0 0  0 0 0 0.204257246 0"/>
    </filter>
  </defs>
  <g fill="none" fill-rule="evenodd">
    <use fill="#000" filter="url(#rise-a)" xlink:href="#rise-b"/>
    <use fill="#F49352" xlink:href="#rise-b"/>
    <use fill="url(#rise-c)" style="mix-blend-mode:soft-light" xlink:href="#rise-b"/>
    <circle cx="16" cy="15" r="14.5" stroke="#000" stroke-opacity=".097"/>
    <g>
      <use fill="#000" filter="url(#rise-d)" xlink:href="#rise-e"/>
      <use fill="#FFF" xlink:href="#rise-e"/>
    </g>
  </g>
</svg>

<svg height="32" width="32" xmlns="http://www.w3.org/2000/svg" xmlns:xlink="http://www.w3.org/1999/xlink"><defs><linearGradient id="c" x1="50%" x2="50%" y1="0%" y2="100%"><stop offset="0" stop-color="#fff" stop-opacity=".5"/><stop offset="1" stop-opacity=".5"/></linearGradient><circle id="b" cx="16" cy="15" r="15"/><filter id="a" height="111.7%" width="111.7%" x="-5.8%" y="-4.2%"><feOffset dy=".5" in="SourceAlpha" result="shadowOffsetOuter1"/><feGaussianBlur in="shadowOffsetOuter1" result="shadowBlurOuter1" stdDeviation=".5"/><feComposite in="shadowBlurOuter1" in2="SourceAlpha" operator="out" result="shadowBlurOuter1"/><feColorMatrix in="shadowBlurOuter1" values="0 0 0 0 0 0 0 0 0 0 0 0 0 0 0 0 0 0 0.199473505 0"/></filter><path id="e" d="M12.605 8.155c-.857 0-1.552-.706-1.552-1.577S11.748 5 12.605 5c.858 0 1.553.706 1.553 1.578s-.695 1.577-1.553 1.577zM19.447 25a1.565 1.565 0 0 1-1.552-1.578c0-.87.695-1.577 1.552-1.577.858 0 1.553.706 1.553 1.577 0 .872-.695 1.578-1.553 1.578zM13.242 13.21a1.38 1.38 0 0 1-1.955-.265 1.432 1.432 0 0 1 .26-1.986l7.158-5.562a1.38 1.38 0 0 1 1.955.265 1.432 1.432 0 0 1-.26 1.987zm.053 5.669a1.38 1.38 0 0 1-1.955-.265 1.432 1.432 0 0 1 .26-1.987l7.158-5.561a1.38 1.38 0 0 1 1.955.265 1.432 1.432 0 0 1-.26 1.986zm0 5.829a1.38 1.38 0 0 1-1.955-.265 1.432 1.432 0 0 1 .26-1.987l7.158-5.561a1.38 1.38 0 0 1 1.955.265 1.432 1.432 0 0 1-.26 1.986z"/><filter id="d" height="117.5%" width="135%" x="-17.5%" y="-6.2%"><feOffset dy=".5" in="SourceAlpha" result="shadowOffsetOuter1"/><feGaussianBlur in="shadowOffsetOuter1" result="shadowBlurOuter1" stdDeviation=".5"/><feColorMatrix in="shadowBlurOuter1" values="0 0 0 0 0 0 0 0 0 0 0 0 0 0 0 0 0 0 0.204257246 0"/></filter></defs><g fill="none" fill-rule="evenodd"><use fill="#000" filter="url(#a)" xlink:href="#b"/><use fill="#f49352" xlink:href="#b"/><use fill="url(#c)" xlink:href="#b"/><circle cx="16" cy="15" r="14.5" stroke="#000" stroke-opacity=".097"/><use fill="#000" filter="url(#d)" xlink:href="#e"/><use fill="#fff" xlink:href="#e"/></g></svg>
